X: 30049
T: Off To The Hunt
R: jig
M: 6/8
K: Edorian
|:B,EE EFA|BdB AFE|~D3 FDF|AFD FAF|
~E3 EFA|BAB def|edB AFA|1 BGE E3:|2 BGE EB/c/d||
|:e^de ~E3|e^de ~E3|dcd ~D3|FAF DEF|
GFG A^GA|B^AB def|edB AFA|BGE E3:|

